dist/svg/info-s.svg

<!-- Generated by Trend Micro Style Portal -->
<svg version="1.1" xmlns="http://www.w3.org/2000/svg" width="16" height="16" viewBox="0 0 16 16">
  <title>info-s</title>
  <path fill="rgb(34,34,34)" d="M10 11v1h-4v-1h1v-3h-1v-1h3v4zM9 4h-2v2h2zM8 14.5c-3.59 0-6.5-2.91-6.5-6.5s2.91-6.5 6.5-6.5c3.59 0 6.5 2.91 6.5 6.5v0c-0.004 3.588-2.912 6.496-6.5 6.5h-0zM8 2.5c-3.038 0-5.5 2.462-5.5 5.5s2.462 5.5 5.5 5.5c3.038 0 5.5-2.462 5.5-5.5v0c-0.004-3.036-2.464-5.496-5.5-5.5h-0z"></path>
</svg>

<svg width="16" height="16" viewBox="0 0 16 16" fill="rgb(34, 34, 34)" xmlns="http://www.w3.org/2000/svg"><title>info-s</title><path d="M10 11V12H6V11H7V8H6V7H9V11H10ZM9 4H7V6H9V4ZM8 14.5C4.41 14.5 1.5 11.59 1.5 8C1.5 4.41 4.41 1.5 8 1.5C11.59 1.5 14.5 4.41 14.5 8C14.496 11.588 11.588 14.496 8 14.5ZM8 2.5C4.962 2.5 2.5 4.962 2.5 8C2.5 11.038 4.962 13.5 8 13.5C11.038 13.5 13.5 11.038 13.5 8C13.496 4.964 11.036 2.504 8 2.5Z" fill="rgb(34, 34, 34)" fill-opacity="1.00"/></svg>
